dist/svg/u1F3DE.svg

<?xml version="1.0" encoding="UTF-8"?><svg id="Layer_1" xmlns="http://www.w3.org/2000/svg" viewBox="0 0 40 40"><path d="M28.67852,28.89877H3.67852v-12.00952c1.00299-1.19043,2.50299-1.94824,4.1814-1.94824,2.05292,0,3.83923,1.13281,4.77405,2.80615,.36151-.07238,.74172-.0931,1.13553-.04072,.81119,.1079,1.52545,.58657,2.07673,1.19135,1.01143,1.10959,1.10734,2.08927,.93746,2.97193,.59631,.06055,1.15649,.22412,1.6676,.48328,.22522-1.64819,1.62384-2.92249,3.3338-2.92249,1.31335,0,2.43903,.75684,2.99854,1.85095,.31686-.14268,.66583-.22638,1.03581-.22668,.73191-.0006,1.40484,.41163,1.87856,.96956,.76982,.90668,.74051,1.64677,.5365,2.30912h.00018c1.0543,0,2.07318,.562,2.50933,1.52185,.47233,1.03947,.32434,2.05074-.17559,2.80957-.60699,.14722-1.23761,.23389-1.88989,.23389Z" style="fill:#fff;"/><rect width="40" height="40" style="fill:none;"/><g><rect x="3.5" y="3.5" width="33" height="33" rx="8" ry="8" style="fill:#b8e0ff;"/><g><path d="M30.07953,11.09692c-.52472-.99683-1.95215-.99683-2.47693,0l-9.35059,17.76221c-.49066,.93201,.18518,2.05151,1.23846,2.05151h16.63824c.24023-.76086,.37128-1.57031,.37128-2.41064v-5.20679l-6.42047-12.19629Z" style="fill:#23b169;"/><path d="M18.50524,18.03331l-5.69908,10.82584c-.49064,.93201,.1852,2.05157,1.23847,2.05157h13.71665l-6.7791-12.87741c-.52477-.99684-1.95217-.99684-2.47694,0Z" style="fill:#0a9f60;"/><path d="M3.5,19.42725v9.07275c0,.84033,.13104,1.64978,.37128,2.41064h3.35553c1.05322,0,1.72906-1.11951,1.23846-2.05151L3.5,19.42725Z" style="fill:#0a9f60;"/></g><path d="M3.70374,28.91064c-.06262,0-.12109,.00391-.18274,.005,.21765,4.22388,3.70105,7.58435,7.979,7.58435H28.5c4.2796,0,7.7641-3.36304,7.97925-7.58936H3.70374Z" style="fill:#7bd58f;"/><rect x="3.5" y="3.5" width="32.92743" height="33" rx="8" ry="8" style="fill:none;"/></g><path d="M26.30552,18.77634c1.26317,0,1.26317,1.31658,2.52631,1.31658,1.26426,0,1.26426-1.31658,2.52848-1.31658,1.26514,0,1.26514,1.31658,2.53024,1.31658,.34746,0,.59572-.10326,.80475-.24734l-4.59888-8.73591c-.5337-1.01383-1.98541-1.01383-2.51911,0l-4.59959,8.73729c.20836,.14341,.45591,.24596,.80187,.24596,1.26297,0,1.26297-1.31658,2.52593-1.31658Z" style="fill:#4fc578;"/><path d="M8.46527,28.85913s1.69577,1.34888,3.77939,1.93545c2.27605,.64074,9.35496,.83187,9.35496,3.06838,0,1.9603-6.61434,2.637-6.61434,2.637h13.05349s1.52972-.87256,1.28527-2.40071c-.21254-1.32868-1.84117-2.54881-6.22297-3.30091s-9.6138-1.00074-10.29491-1.93919l-4.34089-.00002Z" style="fill:#64a7ff;"/></svg>

<svg id="Layer_1" data-name="Layer 1" xmlns="http://www.w3.org/2000/svg" viewBox="0 0 40 40"><defs><style>.cls-1{fill:#fff;}.cls-2{fill:none;}.cls-3{fill:#b8e0ff;}.cls-4{fill:#23b169;}.cls-5{fill:#0a9f60;}.cls-6{fill:#7bd58f;}.cls-7{fill:#4fc578;}.cls-8{fill:#64a7ff;}</style></defs><path class="cls-1" d="M28.679,28.9h-25V16.889a5.463,5.463,0,0,1,8.955.858,3.46,3.46,0,0,1,1.135-.041A3.513,3.513,0,0,1,15.846,18.9a3.2,3.2,0,0,1,.938,2.972,4.714,4.714,0,0,1,1.667.483,3.36,3.36,0,0,1,6.333-1.072,2.359,2.359,0,0,1,2.914.743,2.224,2.224,0,0,1,.536,2.309h0a2.729,2.729,0,0,1,2.509,1.522,2.853,2.853,0,0,1-.176,2.81A8,8,0,0,1,28.679,28.9Z"/><rect class="cls-2" width="40" height="40"/><rect class="cls-3" x="3.5" y="3.5" width="33" height="33" rx="8"/><path class="cls-4" d="M30.08,11.1a1.4,1.4,0,0,0-2.477,0L18.252,28.859a1.4,1.4,0,0,0,1.238,2.052H36.129A8,8,0,0,0,36.5,28.5V23.293Z"/><path class="cls-5" d="M18.505,18.033l-5.7,10.826a1.4,1.4,0,0,0,1.239,2.052H27.761L20.982,18.033A1.4,1.4,0,0,0,18.505,18.033Z"/><path class="cls-5" d="M3.5,19.427V28.5a8,8,0,0,0,.371,2.411H7.227a1.4,1.4,0,0,0,1.238-2.052Z"/><path class="cls-6" d="M3.7,28.911c-.063,0-.121,0-.183,0A7.993,7.993,0,0,0,11.5,36.5h17a7.993,7.993,0,0,0,7.979-7.589Z"/><rect class="cls-2" x="3.5" y="3.5" width="32.927" height="33" rx="8"/><path class="cls-7" d="M26.306,18.776c1.263,0,1.263,1.317,2.526,1.317s1.264-1.317,2.528-1.317,1.265,1.317,2.531,1.317a1.349,1.349,0,0,0,.8-.247L30.1,11.11a1.423,1.423,0,0,0-2.519,0l-4.6,8.737a1.349,1.349,0,0,0,.8.246C25.043,20.093,25.043,18.776,26.306,18.776Z"/><path class="cls-8" d="M8.465,28.859a12.193,12.193,0,0,0,3.78,1.936c2.276.64,9.355.831,9.355,3.068,0,1.96-6.615,2.637-6.615,2.637H28.039a2.554,2.554,0,0,0,1.285-2.4c-.212-1.328-1.841-2.549-6.223-3.3s-9.614-1-10.295-1.939Z"/></svg>
